!!!SOCIAL_FUNCTION:	war songs
!!!PDT:	1922
!!!OTL: No_72_War_Song_(e).krn
!!!REG: Southwest
!!!LANG: Non-Tone
!!!LING_GROUP: Uto-Aztecan
**kern
*staff1
=1-
=
*clefF4
*k[b-e-a-d-]
*M3/8
8.e-\L
16dn\K
8d\J
=2
4e-\
8f\
=3
8.e-\L
16d-\K
8d-\J
=4
32d-\LLK
16.A-\JJ
4A-\
=5
8.e-\L
16d-\K
8d-\J
=6
32d-\LLK
16.d-\J
8B-\
8d-\J
=7||
*M2/8
32d-\LLK
16.d-\J
8B-\J
=8
8A-\L
[8A-\J
=9
8A-\L]
8E-;\J
=10||
*M3/8
8.B-\L
16A-\K
8B-\J
=11
8.B-\L
16A-\K
8B-\J
=12||
*M2/8
4B-\
=13||
*M3/8
16A-\LL
16F\JJ
4A-\
=14||
*M2/8
4E-\
=15
8E-\L
8E-\J
=16||
*M3/8
4.E-\
=17
*M2/8
8d-\L
16d-\L
16B-\JJ
=18
8B-\L
8A-\J
=19||
*M3/8
[8A-\
4A-\]
==:|!
*-
